X:1
T:Title
%%score { ( 1 3 ) | ( 2 4 ) }
L:1/8
Q:1/4=100
M:4/4
K:C
V:1 treble nm="Grand Piano"
V:3 treble 
V:2 bass 
V:4 bass 
V:1
 [EG]2 [CE]>[DF] [EG] [Ec]2 [EA] | B2 F>E F4 | F2 D>E F B2 F | [FA]2 [EG]>[_E^F] [=EG]4 | %4
w: Ira~B.~Wilson * * * * *||||
 [EG]2 [CE]>[DF] [EG] [Ed]2 [EA] | [Ec]2 B>A B4 | [^Fd]2 [CFA]>[DFB] [EFc]2 [DFB]>[CFA] | G8 | %8
w: ||||
 [Ec]2 E>F G2 AB | [Ec]2 [CE]>[FA] [EG]2 G2 | B2 D>E F2 AB | [Fd]2 [Ec]>[FA] [EG]2 F2 | %12
w: ||||
 [Ec]2 [EG]>[E^G] A2 =G2 | [^Fd]2 [FA]>[F_B] =B2 A2 | [^Ge]2 [GB]>[Gd] c2 A2 | d4 z4 |] %16
w: ||||
V:2
 [C,C]2 [C,G,]>[C,G,] [C,G,] [C,G,]2 [C,G,] | [G,F]2 [G,D]>[G,^C] [G,D]4 | %2
 [G,B,D]2 [G,B,]>[G,C] [G,B,D] [G,DF]2[K:bass] [G,B,D] | [C,C]2 [C,C]>[C,C] [C,C]4 | %4
 [C,C]2 [C,G,]>[C,G,] [C,G,] [C,G,]2 [C,G,] | [D,G,]2 [D,G,D]>[D,G,C] [D,G,D]4 | %6
 [D,A,]2 D,>D, D,2 D,>D, | [G,B,]2 [F,B,]2 [E,C]2 [D,G,]2 | [C,G,]2[K:treble] C>D E2 [G,F][G,F] | %9
 [C,G,]2 [C,G,]>[C,C] [C,C]2 [E,C]2 | [G,DF]2 B,>C D2 [G,F][G,F] | %11
 [C,G,]2 [C,G,]>[C,G,] [C,C]2 [G,B,]2 | [C,C]2 [C,C]>[C,C] [F,CF]2 [A,^C]2 | %13
 [D,D]2 [D,D]>[D,D][K:treble] [G,DG]2 [B,_E]2 | [E,E]2 [E,E]>[E,E][K:treble] [A,EA]2 [A,CE]2 | %15
 C2 z2[K:bass] z4 |] %16
V:3
 x8 | x8 | x8 | x8 | x8 | x8 | x8 | z2 D2 E2 F2 | x8 | x8 | x8 | x8 | x8 | x8 | x8 | %15
 z2 B,2 [Ec]4 |] %16
V:4
 x8 | x8 | x7[K:bass] x | x8 | x8 | x8 | x8 | x8 | x2[K:treble] x6 | x8 | x8 | x8 | x8 | %13
 x4[K:treble] x4 | x4[K:treble] x4 | [G,F]4[K:bass] [C,G,]4 |] %16

